packages/icons/src/__generated__/ui/svg/ui-faceScan-12.svg

<svg xmlns="http://www.w3.org/2000/svg" fill="#1652F0" viewBox="0 0 12 12"><path d="M2.38 1.655c-.4 0-.725.324-.725.724v2.21H0V2.38A2.38 2.38 0 0 1 2.38 0h2.21v1.655H2.38Zm2.327 3.052C4.707 5.42 4.273 6 3.737 6s-.97-.579-.97-1.293.434-1.293.97-1.293.97.579.97 1.293Zm-.659 1.94a2.05 2.05 0 0 0 3.904 0H4.048ZM8.263 6c.536 0 .97-.579.97-1.293s-.434-1.293-.97-1.293-.97.579-.97 1.293S7.727 6 8.263 6ZM9.62 1.655c.4 0 .725.324.725.724v2.21H12V2.38A2.38 2.38 0 0 0 9.62 0H7.41v1.655h2.21Zm0 8.69c.4 0 .725-.324.725-.724V7.41H12v2.21A2.38 2.38 0 0 1 9.62 12H7.41v-1.655h2.21Zm-7.24 0a.724.724 0 0 1-.725-.724V7.41H0v2.21A2.38 2.38 0 0 0 2.38 12h2.21v-1.655H2.38Z"/></svg>

<svg xmlns="http://www.w3.org/2000/svg" fill="#1652F0" viewBox="0 0 12 12"><path d="M2.38 1.66c-.4 0-.72.32-.72.72v2.2H0v-2.2A2.38 2.38 0 0 1 2.38 0h2.2v1.66h-2.2ZM4.7 4.7c0 .72-.43 1.3-.96 1.3-.54 0-.97-.58-.97-1.3 0-.7.43-1.29.97-1.29.53 0 .97.58.97 1.3Zm-.65 1.95a2.05 2.05 0 0 0 3.9 0h-3.9ZM8.26 6c.54 0 .97-.58.97-1.3 0-.7-.43-1.29-.97-1.29-.53 0-.97.58-.97 1.3 0 .71.44 1.29.97 1.29Zm1.36-4.34c.4 0 .72.32.72.72v2.2H12v-2.2A2.38 2.38 0 0 0 9.62 0h-2.2v1.66h2.2Zm0 8.68c.4 0 .72-.32.72-.72v-2.2H12v2.2A2.38 2.38 0 0 1 9.62 12h-2.2v-1.66h2.2Zm-7.24 0a.72.72 0 0 1-.72-.72v-2.2H0v2.2A2.38 2.38 0 0 0 2.38 12h2.2v-1.66h-2.2Z"/></svg>
